X: 1
T: James Byrne's
M: 4/4
L: 1/8
R: reel
K: Amaj
AFEF ABcB|A2cA BAFB|AFEF ABce|1 fcec BecB:|2 fcec BcAB||
ceae feae|ABcA BAFA|ceae feae|ABcA B2AB|
ceae feae|ABcA BAFB|AFEF ABce|fcec BecB||
